X: 17680
T: Holly Bush, The
R: reel
M: 4/4
K: Dmixolydian
|:"D"A2FA DAFG|"D"Adde fded|"C"c2GG EGGB|"C"cedc AGFG|
"D"A2FA DAFG|"D"Adde fded|"C"cGGB cedc|"C"AcGE "D"D2FG:|
|:"D"Add^c defg|"D"a2de dcAc|"C"GccB cdeg|"C"aged cAGc|
"D"Add^c defg|"D"a2de dcAB|"C"cGGB cedc|"C"AcGE "D"D2FG:|

